X: 40746
T: Tosson March, The
R: jig
M: 6/8
K: Gmajor
|:D|G2A B2c|dge dBG|~c3 dBG|FAA A2D|
GDG BGB|dge dBG|~c3 Adc|BGG G2:|
|:d|gbg faf|ege dBG|cec BdB|cAA A2d|
gbg faf|ege dBG|~c3 Adc|BGG G2:|

